X: 1232
M: 3/8
L: 1/16
K: F
c4 {A}a>g | gff2 (3Acf | fee2 (3Gce | g>ff2 A>B |\
c4 {A}a>g | gff2 (3Acf | fee2 (3Gce | f4 H:|
|: c2 |\
(Bc)(Gc)(Bc) | (Acfc).a2 | (bagf).e.g | (gfed).c2 |\
(Bc)(Gc)(Bc) | (Acfc).a2 | (bagf).e.g | f4 :|
|: c'2 |\
c'4a2 | a4gf | (eg) c2(eg) | ac'f2c2 |\
c'4a2 | a4(gf) | (eg).c2 (eg) | f4 "^D.C.":|

